svgs/sharp-light/chart-bar.svg

<svg xmlns="http://www.w3.org/2000/svg" viewBox="0 0 512 512"><!--! Font Awesome Pro 6.6.0 by @fontawesome - https://fontawesome.com License - https://fontawesome.com/license (Commercial License) Copyright 2024 Fonticons, Inc. --><path d="M32 32l0 16 0 400 464 0 16 0 0 32-16 0L16 480 0 480l0-16L0 48 0 32l32 0zm96 96l16 0 224 0 16 0 0 32-16 0-224 0-16 0 0-32zm16 96l160 0 16 0 0 32-16 0-160 0-16 0 0-32 16 0zm0 96l288 0 16 0 0 32-16 0-288 0-16 0 0-32 16 0z"/></svg>

<svg xmlns="http://www.w3.org/2000/svg" viewBox="0 0 512 512"><!--! Font Awesome Pro 6.4.2 by @fontawesome - https://fontawesome.com License - https://fontawesome.com/license (Commercial License) Copyright 2023 Fonticons, Inc. --><path d="M32 32V48 448H496h16v32H496 16 0V464 48 32H32zm96 96l16 0 224 0h16v32H368l-224 0H128l0-32zm16 96H304h16v32H304 144 128V224h16zm0 96H432h16v32H432 144 128V320h16z"/></svg>
